apps/www/public/images/logos/publicity/fixed-width/1password.svg

<svg width="180" height="60" viewBox="0 0 180 60" fill="none" xmlns="http://www.w3.org/2000/svg">
<path fill-rule="evenodd" clip-rule="evenodd" d="M40.5433 41.5894C46.9439 41.5894 52.1327 36.4006 52.1327 30C52.1327 23.5993 46.9439 18.4106 40.5433 18.4106C34.1426 18.4106 28.9539 23.5993 28.9539 30C28.9539 36.4006 34.1426 41.5894 40.5433 41.5894ZM42.7619 23.8238V30.4797C42.7619 30.658 42.6911 30.8291 42.565 30.9552L41.7653 31.7549C41.7128 31.8074 41.7128 31.8925 41.7653 31.9451L42.565 32.7447C42.6911 32.8708 42.7619 33.0419 42.7619 33.2202V36.3544C42.7619 36.7258 42.4609 37.0269 42.0895 37.0269H38.997C38.6256 37.0269 38.3246 36.7258 38.3246 36.3544V29.7337C38.3246 29.5554 38.3954 29.3844 38.5215 29.2583L39.3036 28.4762C39.3561 28.4237 39.3561 28.3385 39.3036 28.286L38.5215 27.5039C38.3954 27.3778 38.3246 27.2068 38.3246 27.0284V23.8238C38.3246 23.4524 38.6256 23.1513 38.997 23.1513H42.0895C42.4609 23.1513 42.7619 23.4524 42.7619 23.8238Z" fill="#7E7E7E"/>
<path d="M104.896 26.5524C105.85 26.5524 106.732 26.5344 107.614 26.5704C107.704 26.5704 107.848 26.8044 107.884 26.9484C108.352 29.1983 108.82 31.4483 109.288 33.6983C109.342 33.9503 109.396 34.1843 109.486 34.5623C109.576 34.3283 109.63 34.2383 109.648 34.1303C110.224 31.7543 110.8 29.3783 111.358 26.9844C111.43 26.6424 111.556 26.5164 111.916 26.5344C112.654 26.5524 113.374 26.5524 114.112 26.5344C114.436 26.5164 114.544 26.6424 114.616 26.9484C115.228 29.3603 115.858 31.7723 116.47 34.1843C116.506 34.2923 116.542 34.4003 116.632 34.6343C116.902 33.3563 117.136 32.2223 117.388 31.0703C117.676 29.7023 117.964 28.3163 118.234 26.9484C118.306 26.6244 118.45 26.5164 118.774 26.5344C119.566 26.5524 120.358 26.5344 121.204 26.5344C121.15 26.8224 121.114 27.0564 121.06 27.2724C120.286 30.4403 119.494 33.6083 118.72 36.7763C118.63 37.1363 118.486 37.2443 118.126 37.2443C117.01 37.2263 115.876 37.2263 114.742 37.2263C114.184 34.8503 113.626 32.4923 113.086 30.1523C113.05 30.1523 113.032 30.1343 112.996 30.1343C112.438 32.4923 111.88 34.8503 111.304 37.2083C110.044 37.2083 108.82 37.2083 107.56 37.2083C106.642 33.6803 105.778 30.1523 104.896 26.5524Z" fill="#7E7E7E"/>
<path d="M148.112 22.5744V27.6684C147.842 27.4524 147.59 27.2184 147.338 27.0204C145.61 25.6884 142.731 26.1564 141.381 28.0464C140.031 29.9363 139.887 32.0063 140.571 34.1663C141.075 35.7863 142.137 36.9563 143.828 37.3883C145.43 37.8023 147.23 37.3523 148.004 35.8583C148.022 35.8223 148.076 35.8043 148.202 35.6963V37.2263H151.046V22.5744H148.112ZM148.004 31.8263C148.022 32.7983 147.842 33.6083 147.23 34.3103C146.474 35.1743 144.585 35.2103 143.883 33.9863C143.109 32.6183 143.091 31.1963 143.865 29.8463C144.656 28.4604 146.672 28.4784 147.518 29.8463C147.914 30.4763 148.04 31.1783 148.004 31.8263Z" fill="#7E7E7E"/>
<path d="M73.3445 24.1764C72.4805 23.5464 71.5085 23.2404 70.4465 23.2404C68.5745 23.2224 66.7025 23.2224 64.8305 23.2224C64.7225 23.2224 64.6325 23.2404 64.5065 23.2584V37.2263H67.5845V36.7223C67.5845 35.5163 67.6025 34.2923 67.5845 33.0863C67.5845 32.7803 67.6745 32.6723 67.9985 32.6723C68.8985 32.6723 69.7985 32.6723 70.6985 32.6003C73.4165 32.3843 75.0365 30.6563 75.1085 27.9564C75.1265 26.4084 74.6045 25.1124 73.3445 24.1764ZM69.7625 29.9543C69.1685 29.9543 68.5745 29.9363 67.9625 29.9543C67.6745 29.9543 67.5665 29.8643 67.5665 29.5583C67.5845 29.0003 67.5665 28.4603 67.5665 27.9024C67.5665 27.3624 67.5845 26.8224 67.5665 26.2824C67.5665 26.0124 67.6385 25.8684 67.9445 25.8864C68.7005 25.9224 69.4745 25.9044 70.2305 25.9404C71.1305 25.9944 71.7605 26.5884 71.8685 27.4884C72.0845 29.0363 71.3105 29.9363 69.7625 29.9543Z" fill="#7E7E7E"/>
<path d="M85.2838 37.2263C85.2298 34.6883 85.2298 32.1863 85.0858 29.7023C85.0138 28.5324 84.3298 27.5784 83.2859 26.9484C81.6479 25.9584 78.6779 25.9764 77.0399 27.5784C76.4639 28.1544 76.0139 28.8024 75.8159 29.6303C76.5719 29.8103 77.2919 29.9543 77.9759 30.1703C78.3719 30.2783 78.6419 30.2783 78.8039 29.8103C78.8759 29.5943 79.0739 29.3783 79.2539 29.2163C79.7759 28.7484 80.3879 28.6404 81.0539 28.8383C81.6659 29.0363 81.9899 29.5043 82.1159 30.1163C82.2959 30.9443 82.1339 31.1423 81.2879 31.1423C80.5319 31.1423 79.7579 31.1243 79.0019 31.1423C78.5339 31.1603 78.0659 31.1963 77.6159 31.3043C75.4019 31.8263 74.5559 34.5983 76.0859 36.2903C77.5979 37.9463 80.5499 37.9463 82.0619 36.2543C82.1519 36.1643 82.1699 36.0203 82.2239 35.9123C82.2779 35.9663 82.3499 36.0023 82.4039 36.0563V37.2443H85.2838V37.2263ZM80.3339 35.1743C80.0279 35.2103 79.7039 35.2103 79.3979 35.1743C78.7859 35.0843 78.4079 34.6343 78.4259 34.0763C78.4439 33.5003 78.8039 33.0683 79.4519 33.0503C80.3519 33.0143 81.2339 33.0503 82.1519 33.0503C82.3319 34.0223 81.5219 35.0123 80.3339 35.1743Z" fill="#7E7E7E"/>
<path d="M126.669 26.2824C123.591 26.2284 121.215 28.5863 121.161 31.7363C121.107 34.9043 123.375 37.3883 126.327 37.5143C129.459 37.6403 132.105 35.4263 132.123 31.9343C132.141 28.6403 129.765 26.2824 126.669 26.2824ZM128.469 33.8423C127.461 35.3363 125.427 35.2103 124.671 33.5723C124.437 33.0683 124.365 32.4743 124.203 31.8983C124.365 31.3223 124.437 30.7283 124.671 30.2063C124.995 29.4503 125.625 28.9823 126.453 28.8923C127.317 28.8203 127.983 29.1983 128.469 29.9183C129.171 30.9803 129.171 32.7983 128.469 33.8423Z" fill="#7E7E7E"/>
<path d="M95.0034 29.4323C94.1574 29.5943 93.3114 29.7383 92.4834 29.8823C92.4114 29.9003 92.2674 29.7203 92.2134 29.6123C91.7094 28.6043 90.6834 28.1724 89.6034 28.5503C89.2074 28.6943 88.9194 28.9283 88.8834 29.3783C88.8294 29.8463 89.0994 30.1343 89.4954 30.2603C90.4674 30.5663 91.4574 30.7823 92.4114 31.1063C93.0414 31.3223 93.7074 31.5743 94.2114 31.9703C95.3094 32.8523 95.4354 34.4903 94.6434 35.6963C93.9954 36.6683 93.0774 37.1903 91.9434 37.3883C90.2154 37.6943 88.5414 37.5683 87.0474 36.5423C86.3634 36.0743 85.9675 35.4083 85.8055 34.5443C86.6154 34.3463 87.3894 34.1483 88.1634 33.9683C88.2534 33.9503 88.4514 34.0583 88.4874 34.1663C89.0994 35.3903 90.6474 35.4623 91.5114 35.1743C91.9074 35.0483 92.2134 34.7783 92.2134 34.2923C92.2314 33.8063 91.8894 33.6263 91.5294 33.5183C90.6474 33.2663 89.7474 33.0323 88.8654 32.7803C88.5414 32.6903 88.2174 32.5643 87.8934 32.4383C86.7954 31.9883 86.0934 31.2323 86.0215 29.9903C85.9494 28.7843 86.3454 27.7944 87.3714 27.0924C88.2714 26.4624 89.2974 26.3004 90.3594 26.2824C91.6734 26.2824 92.9334 26.4984 93.9234 27.4524C94.4634 27.9924 94.8234 28.6223 95.0034 29.4323Z" fill="#7E7E7E"/>
<path d="M95.6336 34.5263C96.4256 34.3283 97.1816 34.1303 97.9376 33.9683C98.0456 33.9503 98.2616 34.0403 98.3156 34.1303C98.8916 35.2643 100.26 35.4443 101.25 35.1743C101.754 35.0483 102.042 34.6883 102.06 34.2743C102.078 33.7703 101.718 33.5903 101.34 33.4823C100.458 33.2123 99.5575 32.9963 98.6576 32.7623C98.3336 32.6723 98.0096 32.5463 97.6856 32.4203C96.6056 31.9703 95.9216 31.2143 95.8316 30.0083C95.7596 28.8204 96.1376 27.8304 97.1276 27.1284C98.0276 26.4804 99.0716 26.3004 100.152 26.3004C101.466 26.3004 102.708 26.5164 103.716 27.4704C104.256 27.9744 104.634 28.6584 104.814 29.4503C104.148 29.5763 103.464 29.6663 102.816 29.8283C102.366 29.9363 102.132 29.8643 101.898 29.3963C101.43 28.4784 100.17 28.1544 99.2336 28.6224C98.9096 28.7844 98.7116 29.0544 98.7116 29.4324C98.7116 29.8103 98.9096 30.0803 99.2336 30.1883C99.9896 30.4403 100.782 30.6383 101.538 30.8903C102.204 31.1063 102.906 31.2683 103.518 31.5923C105.03 32.4023 105.426 34.2383 104.472 35.6783C103.842 36.6503 102.906 37.1723 101.79 37.3703C100.062 37.6763 98.3876 37.5503 96.8936 36.5243C96.2096 36.0743 95.8136 35.4083 95.6336 34.5263Z" fill="#7E7E7E"/>
<path d="M58.4586 37.2083C58.4586 33.7163 58.4586 30.2603 58.4586 26.7504C57.7746 26.7504 57.1086 26.7504 56.4066 26.7504C56.4066 25.8864 56.4066 25.0944 56.4066 24.2844C56.8386 24.2124 57.2886 24.1584 57.7206 24.0504C58.2606 23.9244 58.7106 23.6544 59.0526 23.2044C59.1246 23.1144 59.2326 23.0064 59.3226 23.0064C60.0606 22.9884 60.8166 23.0064 61.5905 23.0064C61.5905 27.7764 61.5905 32.4743 61.5905 37.2083C60.5466 37.2083 59.5206 37.2083 58.4586 37.2083Z" fill="#7E7E7E"/>
<path d="M136.014 26.5884C136.014 27.1824 136.014 27.7404 136.014 28.2984C136.05 28.2984 136.068 28.3163 136.104 28.3163C136.23 28.1184 136.338 27.9024 136.464 27.7044C137.148 26.6064 138.498 26.0484 139.722 26.3364C140.046 26.4084 140.244 26.5164 140.136 26.9484C139.956 27.6324 139.83 28.3163 139.776 29.0183C139.74 29.4683 139.524 29.4323 139.2 29.4323C138.66 29.4143 138.102 29.4323 137.562 29.5223C136.878 29.6303 136.482 30.0983 136.374 30.7643C136.302 31.1783 136.284 31.5923 136.284 32.0063C136.266 33.5723 136.284 35.1563 136.284 36.7223C136.284 36.8843 136.284 37.0463 136.284 37.2443C135.258 37.2443 134.268 37.2443 133.242 37.2443C133.242 33.6983 133.242 30.1883 133.242 26.6064C134.124 26.5884 135.024 26.5884 136.014 26.5884Z" fill="#7E7E7E"/>
</svg>

<svg xmlns="http://www.w3.org/2000/svg" width="180" height="60" fill="none" viewBox="0 0 180 60"><path fill="#7e7e7e" fill-rule="evenodd" d="M40.543 41.59c6.4 0 11.59-5.19 11.59-11.59s-5.19-11.59-11.59-11.59S28.953 23.6 28.953 30s5.19 11.59 11.59 11.59m2.219-17.766v6.656c0 .178-.07.35-.197.475l-.8.8a.135.135 0 0 0 0 .19l.8.8a.67.67 0 0 1 .197.475v3.134a.67.67 0 0 1-.672.673h-3.093a.67.67 0 0 1-.672-.673v-6.62c0-.179.07-.35.197-.476l.782-.782a.135.135 0 0 0 0-.19l-.782-.782a.67.67 0 0 1-.197-.476v-3.204c0-.372.3-.673.672-.673h3.093c.37 0 .672.301.672.673" clip-rule="evenodd"/><path fill="#7e7e7e" d="M104.896 26.552c.954 0 1.836-.018 2.718.018.09 0 .234.234.27.378l1.404 6.75c.054.252.108.486.198.864.09-.234.144-.324.162-.432a830 830 0 0 0 1.71-7.146c.072-.342.198-.468.558-.45.738.018 1.458.018 2.196 0 .324-.018.432.108.504.414.612 2.412 1.242 4.824 1.854 7.236.036.108.072.216.162.45.27-1.278.504-2.412.756-3.564.288-1.368.576-2.754.846-4.122.072-.324.216-.432.54-.414.792.018 1.584 0 2.43 0-.054.288-.09.522-.144.738-.774 3.168-1.566 6.336-2.34 9.504-.09.36-.234.468-.594.468-1.116-.018-2.25-.018-3.384-.018-.558-2.376-1.116-4.734-1.656-7.074-.036 0-.054-.018-.09-.018-.558 2.358-1.116 4.716-1.692 7.074h-3.744c-.918-3.528-1.782-7.056-2.664-10.656M148.112 22.574v5.094c-.27-.216-.522-.45-.774-.648-1.728-1.332-4.607-.864-5.957 1.026s-1.494 3.96-.81 6.12c.504 1.62 1.566 2.79 3.257 3.222 1.602.414 3.402-.036 4.176-1.53.018-.036.072-.054.198-.162v1.53h2.844V22.574zm-.108 9.252c.018.972-.162 1.782-.774 2.484-.756.864-2.645.9-3.347-.324-.774-1.368-.792-2.79-.018-4.14.791-1.386 2.807-1.368 3.653 0 .396.63.522 1.332.486 1.98M73.345 24.176a4.8 4.8 0 0 0-2.898-.936c-1.873-.018-3.745-.018-5.617-.018-.108 0-.198.018-.323.036v13.968h3.078v-.504c0-1.206.018-2.43 0-3.636 0-.306.09-.414.414-.414.9 0 1.8 0 2.7-.072 2.718-.216 4.338-1.944 4.41-4.644.017-1.548-.504-2.844-1.764-3.78m-3.582 5.778c-.595 0-1.189-.018-1.8 0-.288 0-.396-.09-.396-.396.018-.558 0-1.098 0-1.656 0-.54.018-1.08 0-1.62 0-.27.072-.414.378-.396.756.036 1.53.018 2.286.054.9.054 1.53.648 1.638 1.548.216 1.548-.558 2.448-2.106 2.466M85.284 37.226c-.054-2.538-.054-5.04-.198-7.524-.072-1.17-.756-2.124-1.8-2.754-1.638-.99-4.608-.972-6.246.63-.576.576-1.026 1.224-1.224 2.052.756.18 1.476.324 2.16.54.396.108.666.108.828-.36.072-.216.27-.432.45-.594.522-.468 1.134-.576 1.8-.378.612.198.936.666 1.062 1.278.18.828.018 1.026-.828 1.026-.756 0-1.53-.018-2.286 0-.468.018-.936.054-1.386.162-2.214.522-3.06 3.294-1.53 4.986 1.512 1.656 4.464 1.656 5.976-.036.09-.09.108-.234.162-.342.054.054.126.09.18.144v1.188h2.88zm-4.95-2.052a4 4 0 0 1-.936 0c-.612-.09-.99-.54-.972-1.098.018-.576.378-1.008 1.026-1.026.9-.036 1.782 0 2.7 0 .18.972-.63 1.962-1.818 2.124M126.669 26.282c-3.078-.054-5.454 2.304-5.508 5.454-.054 3.168 2.214 5.652 5.166 5.778 3.132.126 5.778-2.088 5.796-5.58.018-3.294-2.358-5.652-5.454-5.652m1.8 7.56c-1.008 1.494-3.042 1.368-3.798-.27-.234-.504-.306-1.098-.468-1.674.162-.576.234-1.17.468-1.692.324-.756.954-1.224 1.782-1.314.864-.072 1.53.306 2.016 1.026.702 1.062.702 2.88 0 3.924M95.003 29.432c-.846.162-1.692.306-2.52.45-.072.018-.216-.162-.27-.27-.504-1.008-1.53-1.44-2.61-1.062-.396.144-.684.378-.72.828-.054.468.216.756.612.882.972.306 1.962.522 2.916.846.63.216 1.296.468 1.8.864 1.098.882 1.224 2.52.432 3.726-.648.972-1.566 1.494-2.7 1.692-1.728.306-3.402.18-4.896-.846-.684-.468-1.08-1.134-1.242-1.998.81-.198 1.584-.396 2.358-.576.09-.018.288.09.324.198.612 1.224 2.16 1.296 3.024 1.008.396-.126.702-.396.702-.882.018-.486-.324-.666-.684-.774-.882-.252-1.782-.486-2.664-.738-.324-.09-.648-.216-.972-.342-1.098-.45-1.8-1.206-1.871-2.448-.073-1.206.323-2.196 1.35-2.898.9-.63 1.925-.792 2.987-.81 1.314 0 2.574.216 3.564 1.17.54.54.9 1.17 1.08 1.98M95.634 34.526c.792-.198 1.548-.396 2.304-.558.108-.018.324.072.378.162.576 1.134 1.944 1.314 2.934 1.044.504-.126.792-.486.81-.9.018-.504-.342-.684-.72-.792-.882-.27-1.782-.486-2.682-.72-.324-.09-.648-.216-.972-.342-1.08-.45-1.764-1.206-1.854-2.412-.072-1.188.306-2.178 1.296-2.88.9-.648 1.944-.828 3.024-.828 1.314 0 2.556.216 3.564 1.17.54.504.918 1.188 1.098 1.98-.666.126-1.35.216-1.998.378-.45.108-.684.036-.918-.432-.468-.918-1.728-1.242-2.664-.774-.324.162-.522.432-.522.81s.198.648.522.756c.756.252 1.548.45 2.304.702.666.216 1.368.378 1.98.702 1.512.81 1.908 2.646.954 4.086-.63.972-1.566 1.494-2.682 1.692-1.728.306-3.402.18-4.896-.846-.684-.45-1.08-1.116-1.26-1.998M58.459 37.208V26.75h-2.052v-2.466c.432-.072.882-.126 1.314-.234.54-.126.99-.396 1.332-.846.072-.09.18-.198.27-.198.738-.018 1.494 0 2.267 0v14.202zM136.014 26.588v1.71c.036 0 .054.018.09.018.126-.198.234-.414.36-.612.684-1.098 2.034-1.656 3.258-1.368.324.072.522.18.414.612a11.6 11.6 0 0 0-.36 2.07c-.036.45-.252.414-.576.414-.54-.018-1.098 0-1.638.09-.684.108-1.08.576-1.188 1.242-.072.414-.09.828-.09 1.242-.018 1.566 0 3.15 0 4.716v.522h-3.042V26.606c.882-.018 1.782-.018 2.772-.018"/></svg>
